Gruvbox-Plus-Dark/apps/16/atelier.svg

<svg width="16" height="16" version="1.1" viewBox="0 0 16 16" xmlns="http://www.w3.org/2000/svg">
  <defs>
    <style type="text/css" id="current-color-scheme">.ColorScheme-Text { color:#ebdbb2; } .ColorScheme-Highlight { color:#458588; }</style>
  </defs>
  <path class="ColorScheme-Text" fill="currentColor" d="m12.31 4.769v3.231c0.892 0 1.615-0.723 1.615-1.615s-0.723-1.616-1.615-1.616zm-5.385 7.539v0.538c0 1.346 0.539 1.615 1.077 2.154 0.538-0.539 1.077-0.808 1.077-2.154v-0.538h0.538v-2.154h1.616v-6.462h3.769v-1.615h-3.769v-1.077h-6.462v1.077h-3.769v1.615h3.769v6.462h1.616v2.154h0.538zm-3.231-7.539c-0.892 0-1.615 0.724-1.615 1.616s0.723 1.615 1.615 1.615v-3.231z"/>
</svg>

<svg xmlns="http://www.w3.org/2000/svg" style="isolation:isolate" width="16" height="16" viewBox="0 0 16 16">
 <defs>
  <style id="current-color-scheme" type="text/css">
   .ColorScheme-Text { color:#ebdbb2; } .ColorScheme-Highlight { color:#458588; }
  </style>
  <linearGradient id="arrongin" x1="0%" x2="0%" y1="0%" y2="100%">
   <stop offset="0%" style="stop-color:#d79921; stop-opacity:1"/>
   <stop offset="100%" style="stop-color:#b57614; stop-opacity:1"/>
  </linearGradient>
  <linearGradient id="aurora" x1="0%" x2="0%" y1="0%" y2="100%">
   <stop offset="0%" style="stop-color:#83a598; stop-opacity:1"/>
   <stop offset="100%" style="stop-color:#b16286; stop-opacity:1"/>
  </linearGradient>
  <linearGradient id="fitdance" x1="0%" x2="0%" y1="0%" y2="100%">
   <stop offset="0%" style="stop-color:#8ec07c; stop-opacity:1"/>
   <stop offset="100%" style="stop-color:#458588; stop-opacity:1"/>
  </linearGradient>
  <linearGradient id="oomox" x1="0%" x2="0%" y1="0%" y2="100%">
   <stop offset="0%" style="stop-color:#458588; stop-opacity:1"/>
   <stop offset="100%" style="stop-color:#928374; stop-opacity:1"/>
  </linearGradient>
  <linearGradient id="rainblue" x1="0%" x2="0%" y1="0%" y2="100%">
   <stop offset="0%" style="stop-color:#b8bb26; stop-opacity:1"/>
   <stop offset="100%" style="stop-color:#076678; stop-opacity:1"/>
  </linearGradient>
  <linearGradient id="sunrise" x1="0%" x2="0%" y1="0%" y2="100%">
   <stop offset="0%" style="stop-color: #fe8019; stop-opacity:1"/>
   <stop offset="100%" style="stop-color: #fabd2f; stop-opacity:1"/>
  </linearGradient>
  <linearGradient id="telinkrin" x1="0%" x2="0%" y1="0%" y2="100%">
   <stop offset="0%" style="stop-color: #83a598; stop-opacity:1"/>
   <stop offset="100%" style="stop-color: #83a598; stop-opacity:1"/>
  </linearGradient>
  <linearGradient id="60spsycho" x1="0%" x2="0%" y1="0%" y2="100%">
   <stop offset="0%" style="stop-color: #fb4934; stop-opacity:1"/>
   <stop offset="25%" style="stop-color: #fabd2f; stop-opacity:1"/>
   <stop offset="50%" style="stop-color: #fe8019; stop-opacity:1"/>
   <stop offset="100%" style="stop-color: #689d6a; stop-opacity:1"/>
  </linearGradient>
  <linearGradient id="90ssummer" x1="0%" x2="0%" y1="0%" y2="100%">
   <stop offset="0%" style="stop-color: #b16286; stop-opacity:1"/>
   <stop offset="20%" style="stop-color: #8ec07c; stop-opacity:1"/>
   <stop offset="50%" style="stop-color: #fabd2f; stop-opacity:1"/>
   <stop offset="100%" style="stop-color: #458588; stop-opacity:1"/>
  </linearGradient>
  <linearGradient id="cyberneon" x1="0%" x2="0%" y1="0%" y2="100%">
    <stop offset="0" style="stop-color:#83a598; stop-opacity:1"/>
    <stop offset="1" style="stop-color:#b16286; stop-opacity:1"/>
  </linearGradient>
  <clipPath id="_clipPath_ua1vkTSYeRSxTVIbZqXBc7BWHNRwgekV">
   <rect width="16" height="16"/>
  </clipPath>
 </defs>
 <g clip-path="url(#_clipPath_ua1vkTSYeRSxTVIbZqXBc7BWHNRwgekV)">
  <rect style="fill:currentColor" class="ColorScheme-Text" width="4.625" height="3.594" x="17.09" y="-.09" transform="matrix(1,0,0,1,0,0)"/>
  <path style="fill:currentColor" class="ColorScheme-Text" d="M 12.308 4.769 L 12.308 8 C 13.2 8 13.923 7.277 13.923 6.385 C 13.923 5.493 13.2 4.769 12.308 4.769 L 12.308 4.769 Z M 6.923 12.308 L 6.923 12.846 C 6.923 14.192 7.462 14.461 8 15 C 8.538 14.461 9.077 14.192 9.077 12.846 L 9.077 12.308 L 9.615 12.308 L 9.615 10.154 L 11.231 10.154 L 11.231 3.692 L 15 3.692 L 15 2.077 L 11.231 2.077 L 11.231 1 L 4.769 1 L 4.769 1 L 4.769 2.077 L 1 2.077 L 1 3.692 L 4.769 3.692 L 4.769 10.154 L 6.385 10.154 L 6.385 12.308 L 6.923 12.308 Z M 3.692 4.769 C 2.8 4.769 2.077 5.493 2.077 6.385 C 2.077 7.277 2.8 8 3.692 8 L 3.692 4.769 L 3.692 4.769 Z"/>
 </g>
</svg>
